X: 41101
T: Trip To Serbia
R: jig
M: 6/8
K: Dminor
[M:7/8]|:cd Ac agf|gc fa gg/f/e|dB cd fab|cg gc fec|
dA cd agf|gc fa gg/f/e|dB cd fab|cg gc agf:|
|:dB cd eec|dB cd f2 e|d2 d/d/d dcA|Bc df edc|
dB cd eec|dg gd fe/f/g|1 ad da baf|g2 ga gfe:|2 ad fe dcA|Bc df edc||

